tenants/story/icons/error_inverted.svg

<svg fill="none" height="24" viewBox="0 0 24 24" width="24" xmlns="http://www.w3.org/2000/svg" xmlns:xlink="http://www.w3.org/1999/xlink"><clipPath id="a"><path d="m0 0h24v24h-24z"/></clipPath><g clip-path="url(#a)"><path d="m23.6589 18.357-9.167-16.88304c-.2428-.44579-.6012-.817886-1.0377-1.077143-.4364-.259257-.9346-.39608458-1.4423-.39608458-.5076 0-1.0058.13682758-1.4422.39608458-.4365.259257-.79495.631353-1.03775 1.077143l-9.174002 16.88304c-.240162.431-.3631599.9174-.3567318 1.4108.00642809.4934.1420568.9764.3933678 1.4011.251311.4246.609526.7759 1.038936 1.0189.42941.2431.91502.3693 1.40843.3662h18.33295c.4895.0006.9708-.1261 1.3965-.3676s.7814-.5896 1.032-1.01c.2506-.4205.3876-.8989.3975-1.3883.0099-.4893-.1076-.9729-.341-1.4031zm-13.053-12.04604c.0098-.36785.1628-.71734.4265-.97405.2636-.25672.6171-.40037.985-.40037.368 0 .7215.14365.9851.40037.2636.25671.4167.6062.4264.97405v6.48404c0 .3744-.1487.7336-.4135.9984s-.624.4136-.9985.4136c-.3744 0-.7336-.1488-.9984-.4136s-.4136-.624-.4136-.9984v-6.48404zm1.449 12.71404c-.2173.0076-.4341-.0286-.6372-.1065-.2031-.078-.3884-.196-.5449-.3471s-.2809-.3321-.3659-.5324c-.0851-.2002-.1289-.4155-.1289-.633 0-.2176.0438-.4329.1289-.6331.085-.2002.2094-.3813.3659-.5324s.3418-.2691.5449-.347c.2031-.078.4199-.1142.6372-.1065.4196.0147.817.1917 1.1086.4938.2916.302.4545.7054.4545 1.1252s-.1629.8232-.4545 1.1252-.689.479-1.1086.4938z" fill="#fff"/></g></svg>

<svg width="24" height="24" viewBox="0 0 24 24" fill="none" xmlns="http://www.w3.org/2000/svg">
<g clip-path="url(#clip0_2137_28425)">
<path d="M23.6589 18.357L14.4919 1.47396C14.2491 1.02817 13.8907 0.656074 13.4542 0.396817C13.0178 0.13756 12.5196 0.000732422 12.0119 0.000732422C11.5043 0.000732422 11.0061 0.13756 10.5697 0.396817C10.1332 0.656074 9.77475 1.02817 9.53195 1.47396L0.357948 18.357C0.117786 18.788 -0.0052119 19.2744 0.0012162 19.7678C0.00764429 20.2612 0.143273 20.7442 0.394584 21.1689C0.645895 21.5935 1.00411 21.9448 1.43352 22.1878C1.86293 22.4309 2.34854 22.5571 2.84195 22.554H21.1749C21.6644 22.5546 22.1457 22.4279 22.5714 22.1864C22.9971 21.9449 23.3528 21.5968 23.6034 21.1764C23.854 20.7559 23.991 20.2775 24.0009 19.7881C24.0108 19.2988 23.8933 18.8152 23.6599 18.385L23.6589 18.357ZM10.6059 6.31096C10.6157 5.94311 10.7687 5.59362 11.0324 5.33691C11.296 5.08019 11.6495 4.93654 12.0174 4.93654C12.3854 4.93654 12.7389 5.08019 13.0025 5.33691C13.2661 5.59362 13.4192 5.94311 13.4289 6.31096V12.795C13.4289 13.1694 13.2802 13.5286 13.0154 13.7934C12.7506 14.0582 12.3914 14.207 12.0169 14.207C11.6425 14.207 11.2833 14.0582 11.0185 13.7934C10.7537 13.5286 10.6049 13.1694 10.6049 12.795V6.31096H10.6059ZM12.0549 19.025C11.8376 19.0326 11.6208 18.9964 11.4177 18.9185C11.2146 18.8405 11.0293 18.7225 10.8728 18.5714C10.7163 18.4203 10.5919 18.2393 10.5069 18.039C10.4218 17.8388 10.378 17.6235 10.378 17.406C10.378 17.1884 10.4218 16.9731 10.5069 16.7729C10.5919 16.5727 10.7163 16.3916 10.8728 16.2405C11.0293 16.0894 11.2146 15.9714 11.4177 15.8935C11.6208 15.8155 11.8376 15.7793 12.0549 15.787C12.4745 15.8017 12.8719 15.9787 13.1635 16.2808C13.4551 16.5828 13.618 16.9862 13.618 17.406C13.618 17.8258 13.4551 18.2292 13.1635 18.5312C12.8719 18.8332 12.4745 19.0102 12.0549 19.025Z" fill="white"/>
</g>
<defs>
<clipPath id="clip0_2137_28425">
<rect width="24" height="24" fill="white"/>
</clipPath>
</defs>
</svg>
